X: 8668
T: Crossing Paddy Nolan's Gate
R: hornpipe
M: 4/4
K: Gmajor
|g/f/e|:dgfg edcB|AGFA G2 G/F/E|DG G/F/G GBdB|cdBc A2 Bc|
dB B/c/B cAFA|GBAF GA G/F/E|DGBG cGBG|1 AGFA G2 g/f/e:|2 AGFA FGGF||
|:DE F/E/D EF G/F/E|FEDF E2 E/F/G|FA A/B/A ABcA|dcBd cBAG|DE F/E/D EFGE|
FEDF E2 EG|1 E/F/G F/G/A G/A/B A/G/F|AG F/G/A G2 GF:|2 FAGB AdcA|BGFA Ggfe||

